X:3098
T:Cliffs of Moher, The
R:Jig
O:Ireland
M:6/8
K:ADor
aga bag|eaf ged|c2A BAG|EAF GED|\
aga bag|eaf ged|
c2A BAG|EFG A3:|\
e2e dBA|e=fe dBA|GAB dBA|GAB dBd|
e2e dBA|e=fe dBA|GAB dBA|BAG A3|\
e=fe dBA|e=fe dBA|GAB dBA|GAB dBd|\
e2e dee|cee Bee|GAB dBA|EFG A3||


